X: 280
T:Shanks Mare
D:Mike and Mary Rafferty, the Old Fireside Music.
Z:Lesl
M:C|
L:1/8
N:Bill's German grandmother used to say "Shanks mare!" to him - it means
N:shake a leg.
K:Edor
E2B~B2 ABz|e~e2B dBAF|E2B~B2 ABz|eefe dBAF|
E2B~B2 ABz|e~e2B dBAF|E2B~B2 ABz|eafe dBAz||
Beed efde|fede feez|fbba faaf|eafe dBAz|
Beed ezde|fede feez|fbba faaf|ezfe dBAF:|E8||
<end>
<start>
